X:3
T:Hommage à la belle Gaspésie (©Marcel Messervier)
M:C|                           % meter
L:1/8                        % length of shortest note
K:A                           % key
EA|"A"c3 d cBAc|feef e2 EA|"A"c2 cd "A#°"cBAc|"Bm7"edde d2 Bc|
dcde dcBA|"E7"BABc B3 e|ecef edcB|[1cBcd cA:|[2"A"Ac (3BcB "A7"A3 A||
|:"D"aA=gA "D/F#"(3faf "D/G#"ec|"A"Acef "F#m"ecAF|"Bm7"EEBE "E7"cE (3BcB|"A"ABcd "A7"ecBA|
"D"aA=gA "D/F#"(3faf "D/G#"ec|"A"Acef "F#m"ecAF|"Bm7"EEBE "E7"cE (3BcB|"A"Ac (3BcB A4:|]
%%text 04/23/08 

#include "LeftHeader.h"
$SmallLMargin
$SmallRMargin
%%textfont Times-Roman 18
%%text Set 94 (NEFFA 08 Jig set)
%%scale .9
